X:1
T:Title
L:1/8
M:4/4
K:F
V:1 treble nm="Grand Piano"
V:1
 z4 z2[Q:1/4=100] A2 | A3 B A2 G2 | G3 A G2 F2 | F3 G F2 G2 | E6 G2 | G3 A G2 F2 | F3 G F2 E2 | %7
 A3 G F2 E2 | D6 D2 | F3 E D2 D2 | G3 F E2 E2 | B3 A G2 B2 | A6 A2 | B4 A2 AA | c4 B2 G2 | %15
 B4 A2 AA | c4 B2 B2 | d3 c BA G2 | c3 B AGFE | D6 z2 |] %20

